X:5527
T:Return to Milltown
O:england
R:reel
M:C|
K:Ddor
D2AD EDDB,|C2EC FCEC|D2AD EDDB,|CDEG AEGE|
D2AD EDDB,|C2EC FCEC|F2FD E2ED|CDEG AEGE:|
K:Dmix
|:d2de f2ed|(3B^cd ef gfge|d2de f2ed|=cAGE EDD2|
d2de f2ed|(3B^cd ef gfge|fafd eged|=cAGE EDD2:|
K:Ddor
"Variations:"
|:D2A,D DFED|C2~C2 FCEC|DA,~A,2 EDAD|CDEG cGEC|
D2A,D FDA,D|C2G,C ECG,C|F2FD E2ED|1 CDEG cGEC:|2 CDEG cGEG||
K:Dmix
|:Adde fded|(3B^cd ef ~g3e|d2de fded|=cAGE ED~D2|
Adde fded|(3B^cd ef g2fg|afge dfed|=cAGE EDD2:|


